X:1
T:Douce nuit, sainte nuit (Stille Nacht, heilige Nacht)
C:Chant de Nol (compos par Franz Gruber en 1818).  Fichier ABC par Bernard Loffet
L:1/8
Q:280
M:3/4
K:C
 [G2C,,2] C,A [G2C,2] | [E2C,,2] C,2 C,2 | [G2C,,2] C,A [G2C,2] | [E2C,,2] C,2 C,2 | \
 [d2G,,2] G,2 [d2G,2] | [B2G,,2] G,2 G,2 | [c2C,,2] C,2 [c2C,2] | [G2C,,2] C,2 C,2 | \
 [A2F,,2] F,2 [A2F,2] | [c2F,,2] F,B [A2F,2] | [G2C,,2] C,A [G2C,2] | [E2C,,2] C,2 C,2 | \
 [A2F,,2] F,2 [A2F,2] | [c2F,,2] F,B [A2F,2] | [G2C,,2] C,A [G2C,2] | [E2C,,2] C,2 C,2 | \
 [d2G,,2] G,2 [d2G,2] | [f2G,,2] G,d [B2G,2] | [c2C,,2] C,2 C,2 | [e2C,,2] C,2 C,2 | \
 [c2C,,2] C,G [E2C,2] | [G2G,,2] G,F [D2G,2] | [C2C,,2] C,2 C,2 | C,,2 C,2 C,2 | \
W:Created with TablEdit http://www.tabledit.com/ by Bernard Loffet
